X:400
T:Mackenzie Highlanders #2 
C:Joe Buchanan's Scottish Tome - Page 355.2
I:355 2
Z:Carl Allison
R:March
L:1/8
M:2/4
K:D
(ed) | "A"c(B/c/) A/>B/c/>d/ | "A"{f}eA Aa | "A"c(B/c/) A/>B/c/>d/ | "A"e2 "E7"(ea) |
"A"{d}c(B/c/) A/>B/c/>d/ | "A"{f}eA Aa | "G"{Bd}B(A/G/) g(B/G/) | "G"d2 {d}d :|
(f/g/) | "A"{b}ac/A/ ef/d/ | "A"{f}eA Ag | "A"{b}ac/A/ ef/d/ | "A"e2 (f/g/) |
"A"{b}ac/A/ ef/d/ | "A"{f}eA Ag | "G"B(A/G/) g(B/G/) | "G"d2 ef/g/ |
"A"{b}ac/A/ ef/d/ | "A"{f}eA AG | "A"ac/A/ ef/d/ | "A"e2 "E7"(eg) |
"A"{b}ag/f/ {a}gf/e/ | "D"{g}f(e/d/) eg | "G"{Bd}B(A/G/) g(B/G/) | "G"d2 {d}d |]

